media/new-page.svg

<svg width="17" height="20" viewBox="0 0 17 20" xmlns="http://www.w3.org/2000/svg"><g fill="none"><path d="M10 1h-7.2c-.99 0-1.791.81-1.791 1.8l-.009 14.4c0 .99.801 1.8 1.791 1.8h10.809c.99 0 1.8-.81 1.8-1.8v-10.8l-5.4-5.4z" stroke="#FFF" stroke-width="2"/><path fill="#FFF" d="M8.8 10.2v-3.2h-1.6v3.2h-3.2v1.6h3.2v3.2h1.6v-3.2h3.2v-1.6z"/></g></svg>

<svg width="17" height="20" viewBox="0 0 17 20" xmlns="http://www.w3.org/2000/svg"><g fill="none" fill-rule="evenodd"><path d="M10 1H2.8c-.99 0-1.791.81-1.791 1.8L1 17.2c0 .99.801 1.8 1.791 1.8H13.6c.99 0 1.8-.81 1.8-1.8V6.4L10 1z" stroke="#FFF" stroke-width="2"/><path fill="#FFF" d="M8.8 10.2V7H7.2v3.2H4v1.6h3.2V15h1.6v-3.2H12v-1.6z"/></g></svg>
